X: 2
T: The Galtee Hunt
R: hornpipe
M: 4/4
L: 1/8
K: Gmaj
D2 | G>AB>G A>G E2 | ~c>Bc>A B>AG>E | G>AB>G A>GE>D | E>A ~A>G A>cB>A |G>AB>G A>G E2 | c>Bc>d e>cg>e | ~d>BG>B A>G (3DEF| ~Gz G>F G2 :||:(3DEF | G2G>B d2d2 | e>gf>d e2 d2 | ~e2 d2 g2 d2 | e>dB>e d>B (3GAB |c4 c>eg>e | B4 B>AG>B | ~A4 A>G E2 | g>fg>b (3agf g>e |d>BG>B A>GE>D | c>Bc>d e>c g>e| d>BG>B A>G (3EDE| Gz ~G>F G2 :||


Tune 386	Setting 386

